X: 40058
T: Throw Away The Keys
R: reel
M: 4/4
K: Dmajor
A3B defg|a2fd efdB|A3B d3e|dBAF EF D2|
A3B defg|a2 fd efdB|A3B defe|dBAF EFD2||
a3f defg|a2fd edBd|A3B defe|dBAF EFD2|
a3f defg|a2fd efdB|A3B defe|dBAF EFD2||

